svg/newspaper.svg

<svg id="UPDATED_SQUARE_compound" xmlns="http://www.w3.org/2000/svg" viewBox="0 0 40 40"><style>.st0{fill-rule:evenodd;clip-rule:evenodd}</style><path d="M23 17h-9v-2h9v2zm0 2h-9v2h9v-2zm-4 4h-5v2h5v-2zm11 4v2H12c-1 0-2-1-2-2V11h17v6h3v10zm-5-14H12v13c0 1 1 1 1 1h12V13z"/></svg>

<?xml version="1.0" encoding="utf-8"?>
<!-- Generator: Adobe Illustrator 19.2.1, SVG Export Plug-In . SVG Version: 6.00 Build 0)  -->
<svg version="1.1" id="UPDATED_SQUARE_compound" xmlns="http://www.w3.org/2000/svg" xmlns:xlink="http://www.w3.org/1999/xlink"
	 x="0px" y="0px" viewBox="0 0 40 40" style="enable-background:new 0 0 40 40;" xml:space="preserve">
<style type="text/css">
	.st0{fill-rule:evenodd;clip-rule:evenodd;}
</style>
<path d="M23,17h-9v-2h9V17z M23,19h-9v2h9V19z M19,23h-5v2h5V23z M30,27v2c0,0-17,0-18,0s-2-1-2-2s0-16,0-16h17v6h3L30,27z M25,13
	H12c0,0,0,9.8,0,13c0,1,1,1,1,1h12h0v-2V13z"/>
</svg>
